assets/images/svg/burger_24.svg

<svg width="24" height="24" viewBox="0 0 24 24" fill="none" xmlns="http://www.w3.org/2000/svg">
<path d="M3.37512 15.6407H20.5627V17.3594H3.37512V15.6407ZM3.37512 12.2031H20.5627V13.5781H3.37512V12.2031Z" fill="#D7514A"/>
<path d="M10.2501 12.2031L8.87516 13.5781L8.18765 14.2656L7.50013 13.5781L6.12514 12.2032L10.2501 12.2031ZM3.37512 10.8281H20.5627V12.2031H3.37512V10.8281Z" fill="#FBDB7B"/>
<path d="M21.9376 14.2656V14.9532C21.9376 15.3313 21.6282 15.6407 21.2501 15.6407H2.68751C2.30938 15.6407 2 15.3313 2 14.9532V14.2656C2 13.8875 2.30938 13.5781 2.68751 13.5781H7.50004L8.18755 14.2656L8.87507 13.5781H21.2501C21.6282 13.5782 21.9376 13.8875 21.9376 14.2656Z" fill="#C99B75"/>
<path d="M21.25 19.7657V20.4532C21.25 21.2094 20.6313 21.8282 19.875 21.8282H4.0625C3.30626 21.8282 2.68751 21.2094 2.68751 20.4532V19.7657C2.68751 19.3875 2.99688 19.0782 3.37502 19.0782H20.5626C20.9406 19.0782 21.25 19.3875 21.25 19.7657ZM11.9687 2.57812C21.9375 2.57812 21.25 10.1406 21.25 10.1406C21.25 10.5531 20.975 10.8281 20.5625 10.8281H3.37498C2.96248 10.8281 2.68747 10.5531 2.68747 10.1406C2.68747 10.1406 1.99999 2.57812 11.9687 2.57812Z" fill="#FDD6B5"/>
<path d="M20.5627 17.3594H3.37512V19.0781H20.5627V17.3594Z" fill="#72BD87"/>
<path d="M19.9061 22H4.3129C3.46546 22 2.78748 21.2982 2.78748 20.421V19.7193C2.78748 19.228 3.16037 18.8421 3.63492 18.8421H20.5841C21.0587 18.8421 21.4316 19.2281 21.4316 19.7193V20.421C21.4316 21.2983 20.7536 22 19.9061 22ZM3.63492 19.193C3.36372 19.193 3.12645 19.4386 3.12645 19.7193V20.4211C3.12645 21.0877 3.66881 21.6492 4.3129 21.6492H19.9061C20.5502 21.6492 21.0926 21.0878 21.0926 20.4211V19.7193C21.0926 19.4386 20.8553 19.193 20.5841 19.193H3.63492ZM19.5672 17.7895C19.1604 17.7895 18.957 17.5789 18.7536 17.4035C18.5841 17.228 18.4485 17.0877 18.2112 17.0877C17.974 17.0877 17.8045 17.228 17.6689 17.4035C17.4994 17.5789 17.296 17.7895 16.8553 17.7895C16.4147 17.7895 16.2451 17.5789 16.0418 17.4035C15.8723 17.228 15.7367 17.0877 15.4994 17.0877C15.2621 17.0877 15.0926 17.228 14.957 17.4035C14.7875 17.5789 14.5841 17.7895 14.1435 17.7895C13.7028 17.7895 13.5333 17.5789 13.3299 17.4035C13.1604 17.228 13.0248 17.0877 12.7876 17.0877C12.5503 17.0877 12.3808 17.228 12.2452 17.4035C12.0757 17.5789 11.8723 17.7895 11.4316 17.7895C10.991 17.7895 10.8215 17.5789 10.6181 17.4035C10.4486 17.228 10.313 17.0877 10.0757 17.0877C9.83844 17.0877 9.66893 17.228 9.53335 17.4035C9.36385 17.5789 9.16046 17.7895 8.71979 17.7895C8.27913 17.7895 8.10962 17.5789 7.90623 17.4035C7.73673 17.228 7.60115 17.0877 7.36387 17.0877C7.1266 17.0877 6.95709 17.228 6.82151 17.4035C6.65201 17.5789 6.44862 17.7895 6.00795 17.7895C5.56729 17.7895 5.39778 17.5789 5.19439 17.4035C5.02489 17.228 4.88931 17.0877 4.65203 17.0877C4.04186 17.0877 3.43169 17.7193 3.43169 17.7543C3.36388 17.8245 3.26219 17.8245 3.19442 17.7543C3.12661 17.6842 3.12661 17.5789 3.19442 17.5087C3.2283 17.4737 3.94017 16.7719 4.68596 16.7719C5.09274 16.7719 5.29613 16.9824 5.49952 17.1579C5.66902 17.3333 5.8046 17.4737 6.04188 17.4737C6.27915 17.4737 6.44866 17.3333 6.58424 17.1579C6.75374 16.9824 6.95713 16.7719 7.3978 16.7719C7.83846 16.7719 8.00797 16.9824 8.21136 17.1579C8.38086 17.3333 8.51644 17.4737 8.75372 17.4737C8.99099 17.4737 9.1605 17.3333 9.29608 17.1579C9.46558 16.9824 9.66897 16.7719 10.1096 16.7719C10.5503 16.7719 10.7198 16.9824 10.9232 17.1579C11.0927 17.3333 11.2283 17.4737 11.4656 17.4737C11.7028 17.4737 11.8723 17.3333 12.0079 17.1579C12.1774 16.9824 12.3808 16.7719 12.8215 16.7719C13.2621 16.7719 13.4317 16.9824 13.635 17.1579C13.8045 17.3333 13.9401 17.4737 14.1774 17.4737C14.4147 17.4737 14.5842 17.3333 14.7198 17.1579C14.8893 16.9824 15.0927 16.7719 15.5333 16.7719C15.974 16.7719 16.1435 16.9824 16.3469 17.1579C16.5164 17.3333 16.652 17.4737 16.8892 17.4737C17.1265 17.4737 17.296 17.3333 17.4316 17.1579C17.6011 16.9824 17.8045 16.7719 18.2452 16.7719C18.6858 16.7719 18.8553 16.9824 19.0587 17.1579C19.2282 17.3333 19.3638 17.4737 19.6011 17.4737C20.2113 17.4737 20.8214 16.8421 20.8214 16.807C20.8892 16.7368 20.9909 16.7368 21.0587 16.807C21.1265 16.8772 21.1265 16.9825 21.0587 17.0526C21.0248 17.0526 20.3129 17.7895 19.5672 17.7895ZM21.2621 15.6842H2.95694C2.48239 15.6842 2.1095 15.2983 2.1095 14.807V14.1052C2.1095 13.614 2.48239 13.2281 2.95694 13.2281H6.00779C6.10949 13.2281 6.1773 13.2983 6.1773 13.4035C6.1773 13.5088 6.10949 13.579 6.00779 13.579H2.95694C2.68574 13.579 2.44847 13.8246 2.44847 14.1053V14.807C2.44847 15.0877 2.68574 15.3333 2.95694 15.3333H21.2621C21.5333 15.3333 21.7705 15.0877 21.7705 14.807V14.1052C21.7705 13.8245 21.5333 13.5789 21.2621 13.5789H10.7536C10.6519 13.5789 10.5841 13.5087 10.5841 13.4035C10.5841 13.2982 10.6519 13.228 10.7536 13.228H21.2621C21.7366 13.228 22.1095 13.614 22.1095 14.1052V14.807C22.1095 15.2983 21.7366 15.6842 21.2621 15.6842ZM8.38071 14.2807C8.34682 14.2807 8.27901 14.2807 8.24512 14.2456L6.24511 12.1754H3.60104C3.49934 12.1754 3.43153 12.1052 3.43153 12C3.43153 11.8947 3.49934 11.8245 3.60104 11.8245H6.31292C6.3468 11.8245 6.41461 11.8596 6.4485 11.8596L8.34682 13.8245L10.2451 11.8596C10.279 11.8246 10.3129 11.8246 10.3807 11.8246H20.5502C20.6519 11.8246 20.7197 11.8948 20.7197 12C20.7197 12.1053 20.6519 12.1755 20.5502 12.1755H10.4485L8.44848 14.2457C8.4824 14.2807 8.41459 14.2807 8.38071 14.2807ZM20.5841 10.7719H3.63492C3.12645 10.7719 2.78748 10.4211 2.78748 9.89475C2.78748 9.78949 2.5502 6.98245 4.55018 4.73685C6.14341 2.9123 8.68579 2 12.1095 2C15.5332 2 18.0756 2.91226 19.6689 4.73681C21.6349 6.94734 21.4655 9.71926 21.4316 9.89471C21.4316 10.421 21.0926 10.7719 20.5841 10.7719ZM12.1095 2.35086C8.78745 2.35086 6.34676 3.22805 4.78745 4.98245C2.88917 7.12279 3.09256 9.85964 3.12645 9.89471C3.12645 10.2456 3.32984 10.421 3.63492 10.421H20.5841C20.8892 10.421 21.0926 10.2105 21.0926 9.89471C21.0926 9.85964 21.296 7.12279 19.3977 4.98241C17.8722 3.22805 15.4315 2.35086 12.1095 2.35086ZM13.6349 5.85963C13.4315 5.85963 13.296 5.71929 13.296 5.50876C13.296 5.29824 13.4315 5.1579 13.6349 5.1579C13.8383 5.1579 13.9739 5.29824 13.9739 5.50876C13.9739 5.71929 13.8383 5.85963 13.6349 5.85963ZM17.7027 5.50876C17.4993 5.50876 17.3638 5.36843 17.3638 5.1579C17.3638 4.94737 17.4993 4.80704 17.7027 4.80704C17.9061 4.80704 18.0417 4.94737 18.0417 5.1579C18.0417 5.36839 17.9061 5.50876 17.7027 5.50876ZM15.3299 5.15786C15.1265 5.15786 14.9909 5.01752 14.9909 4.807C14.9909 4.59647 15.1265 4.45613 15.3299 4.45613C15.5332 4.45613 15.6688 4.59647 15.6688 4.807C15.6688 5.01752 15.5332 5.15786 15.3299 5.15786ZM11.601 4.45613C11.3976 4.45613 11.2621 4.31579 11.2621 4.10527C11.2621 3.89474 11.3976 3.7544 11.601 3.7544C11.8044 3.7544 11.94 3.89474 11.94 4.10527C11.94 4.31579 11.8044 4.45613 11.601 4.45613ZM13.9739 3.75436C13.7705 3.75436 13.635 3.61402 13.635 3.4035C13.635 3.19297 13.7705 3.05263 13.9739 3.05263C14.1773 3.05263 14.3129 3.19297 14.3129 3.4035C14.3129 3.61402 14.1773 3.75436 13.9739 3.75436Z" fill="black"/>
</svg>

<svg xmlns="http://www.w3.org/2000/svg" width="24" height="24" fill="none">
    <path fill="#D7514A" d="M3.38 15.64h17.18v1.72H3.38v-1.72Zm0-3.44h17.18v1.38H3.38V12.2Z" />
    <path fill="#FBDB7B"
        d="m10.25 12.2-1.37 1.38-.7.69-.68-.7-1.37-1.37h4.12Zm-6.87-1.37h17.18v1.37H3.38v-1.37Z" />
    <path fill="#C99B75"
        d="M21.94 14.27v.68c0 .38-.31.7-.69.7H2.69a.69.69 0 0 1-.69-.7v-.68c0-.38.3-.7.69-.7H7.5l.69.7.69-.7h12.37c.38 0 .69.32.69.7Z" />
    <path fill="#FDD6B5"
        d="M21.25 19.77v.68c0 .76-.62 1.38-1.38 1.38H4.07c-.76 0-1.38-.62-1.38-1.38v-.68c0-.38.3-.7.69-.7h17.18c.38 0 .69.32.69.7Zm-9.28-17.2c9.97 0 9.28 7.57 9.28 7.57 0 .41-.27.69-.69.69H3.37c-.4 0-.68-.28-.68-.69 0 0-.69-7.56 9.28-7.56Z" />
    <path fill="#72BD87" d="M20.56 17.36H3.38v1.72h17.18v-1.72Z" />
    <path fill="#000"
        d="M19.9 22H4.32c-.84 0-1.52-.7-1.52-1.58v-.7c0-.5.37-.88.84-.88h16.95c.48 0 .85.39.85.88v.7c0 .88-.68 1.58-1.52 1.58ZM3.64 19.2c-.27 0-.5.24-.5.52v.7c0 .67.54 1.23 1.18 1.23h15.6c.64 0 1.18-.56 1.18-1.23v-.7a.53.53 0 0 0-.5-.53H3.62Zm15.94-1.41c-.41 0-.61-.21-.82-.39-.17-.17-.3-.31-.54-.31-.24 0-.4.14-.54.31-.17.18-.37.39-.81.39-.45 0-.61-.21-.82-.39-.17-.17-.3-.31-.54-.31-.24 0-.4.14-.54.31-.17.18-.38.39-.82.39-.44 0-.6-.21-.81-.39-.17-.17-.3-.31-.54-.31-.24 0-.4.14-.54.31-.17.18-.38.39-.82.39-.44 0-.6-.21-.81-.39-.17-.17-.3-.31-.54-.31-.24 0-.41.14-.55.31-.17.18-.37.39-.81.39-.44 0-.61-.21-.81-.39-.17-.17-.3-.31-.55-.31-.23 0-.4.14-.54.31-.17.18-.37.39-.81.39-.44 0-.61-.21-.82-.39-.17-.17-.3-.31-.54-.31-.6 0-1.22.63-1.22.66a.16.16 0 0 1-.24 0 .17.17 0 0 1 0-.24c.04-.04.75-.74 1.5-.74.4 0 .6.21.81.39.17.17.3.31.54.31.24 0 .4-.14.54-.31.17-.18.38-.39.82-.39.44 0 .6.21.81.39.17.17.3.31.54.31.24 0 .41-.14.55-.31.17-.18.37-.39.81-.39.44 0 .61.21.81.39.17.17.3.31.55.31.23 0 .4-.14.54-.31.17-.18.37-.39.81-.39.44 0 .61.21.81.39.17.17.31.31.55.31.23 0 .4-.14.54-.31.17-.18.37-.39.81-.39.44 0 .61.21.82.39.17.17.3.31.54.31.24 0 .4-.14.54-.31.17-.18.37-.39.82-.39.44 0 .6.21.8.39.18.17.31.31.55.31.61 0 1.22-.63 1.22-.66a.16.16 0 0 1 .24 0c.07.07.07.17 0 .24-.04 0-.75.74-1.5.74Zm1.7-2.1H2.95a.85.85 0 0 1-.85-.88v-.7c0-.5.37-.88.85-.88H6c.1 0 .17.07.17.17s-.07.18-.17.18H2.96c-.27 0-.51.24-.51.53v.7c0 .28.24.52.5.52h18.31c.27 0 .51-.24.51-.52v-.7a.53.53 0 0 0-.5-.53H10.74c-.1 0-.17-.07-.17-.18 0-.1.07-.17.17-.17h10.51c.48 0 .85.38.85.88v.7c0 .49-.37.87-.85.87Zm-12.89-1.4c-.03 0-.1 0-.13-.04l-2-2.07H3.6c-.1 0-.17-.07-.17-.18 0-.1.07-.18.17-.18h2.71c.04 0 .1.04.14.04l1.9 1.96 1.9-1.96c.03-.04.06-.04.13-.04h10.17c.1 0 .17.07.17.18 0 .1-.07.18-.17.18h-10.1l-2 2.07c.03.03-.04.03-.07.03Zm12.2-3.52H3.63c-.5 0-.84-.35-.84-.88 0-.1-.24-2.9 1.76-5.15C6.15 2.9 8.69 2 12.11 2s5.97.91 7.56 2.74a7.31 7.31 0 0 1 1.76 5.15c0 .53-.34.88-.85.88Zm-8.47-8.42c-3.32 0-5.76.88-7.32 2.63A6.93 6.93 0 0 0 3.13 9.9c0 .36.2.53.5.53h16.95c.3 0 .51-.21.51-.53 0-.03.2-2.77-1.7-4.9-1.52-1.76-3.96-2.64-7.28-2.64Zm1.52 3.51c-.2 0-.33-.14-.33-.35 0-.21.13-.35.33-.35s.34.14.34.35c0 .2-.13.35-.34.35Zm4.07-.35c-.2 0-.34-.14-.34-.35 0-.21.14-.35.34-.35s.34.14.34.35c0 .2-.13.35-.34.35Zm-2.37-.35c-.2 0-.34-.14-.34-.35 0-.21.14-.35.34-.35s.34.14.34.35c0 .2-.14.35-.34.35Zm-3.73-.7c-.2 0-.34-.14-.34-.35 0-.22.14-.36.34-.36s.34.14.34.36c0 .2-.14.35-.34.35Zm2.37-.7c-.2 0-.34-.15-.34-.36 0-.2.14-.35.34-.35s.34.14.34.35c0 .21-.13.35-.34.35Z" />
</svg>
